X:1
T:In the Evening
M:4/4
L:1/8
K:G
 DD| G G- G4 GD| G B- B6| GG GG A2 A2| G6 GG| dd d^c d G3| GG GG =F2 E2|\
 D8-| D4 e2 _B=B| dd _B=B G E3| GG GG A2 A G-| G2 GG E2 E2| D4 z2 D2|\
 G4- GG GD| G B- B6| G G3 A2 A2| G6 z G| dd d^c d G3| G G3 E2 E2|D-B, B,6-|\
 B,4 z e2 B| d3 BG E3| GG GG A2 G G-| G2 GG E2 E2| D4 z2 DD| G4 G2 G3.99999962500005/5.99999925000009 D3.99999962500005/5.99999925000009 D3.99999962500005/5.99999925000009|\
 B8| G G3 A2 A2| G6 GG| dd d G/2G/2 dG G2| G G3 =F2 E2|D-B, B,6-| B,2 z2 e2 _B=B|\
 dd_B-=B GG E2| G G2 G A2 AA| G2 GG E2 E2| D4 z4| z GG GG GG G| G B- B6|\
 z GG G A3 A| G8| z dd dd G3| G G3 =F3 E|D-B, B,6-| B,2 z2 e2 _B=B|\
 dd _B=B G E3| GG GG _B- A2 G| G2 GG E2 E2|D-B, B,6|
